X:1
T:Title
%%score 1 2 3
L:1/8
M:3/2
K:C
V:1 treble nm="Part_1"
V:2 treble-8 nm="Part_2"
V:3 treble-8 nm="Part_3"
V:1
 F8 G4 | A4 F4 z4 | c8 _B4 | A4 G4 F4 | E4 G8 | F4 E8 | F8 z4 | c4 A2 B2 c4 | z12 | c4 c4 A4 | %10
 G8 F4 | F4 E8 | F4 _B8 | A4 G8 | F4 E8 | F12 | z12 | c4 c4 A4 | G2 A2 B4 c4 | c4 B8 | c4 d8 | %21
 c4 B8 | c4 _B8 | A4 G8 | A12 | z12 | A4 G4 A2 B2 | c2 A2 G4 A4 | G4 F8 | G4 c8 | _B4 A8 | G4 F8 | %32
 G12 | z12 | E4 E4 E4 | G8 F4 | E4 D8 | C4 z4 c4 | c8 _B4 | A4 G8 | F4 E8 | F4 _B8 | A4 G8 | %43
 F4 E8 | F12 |] %45
V:2
[K:F] F8 c4 | A4 d8 | c8 G4 | A8 d4 | c4 B8 | A4 G8 | F12 | z12 | f4 d2 d2 c2 z2 | F4 F4 F4 | %10
 c8 A4 | A4 G8 | F4 G8 | A4 c8 | A4 G8 | F12 | z12 | f4 c4 f4 | e8 e4 | e4 d8 | c4 g8 | e4 d8 | %22
 c8 d4- | d4 B8 | A12 | z12 | d4 e4 d4 | c8 c4 | B4 A8 | G4 A8 | d4 c8 | B4 A8 | G12 | z12 | %34
 c4 c4 c4 | G8 A4 | c4 =B8 | c4 z4 A4 | F8 G4 | A4 c8 | d4 c8 | F4 G8 | c4 B8 | A4 G8 | F12 |] %45
V:3
[K:F] c8 e4 | c4 B8 | A8 d4 | c8 B4 | A4 d8 | c4 B8 | c12 | z12 | F4 G2 A2 F2 z2 | c4 c4 c4 | %10
 e8 c4 | c4 B8 | c4 B4 d4 | c4 e8 | c4 B8 | c12 | z12 | F4 F4 F4 | c8 c4 | c4 G8 | g4 G8 | c4 G8 | %22
 g4 e4 f4- | f4 d8 | e12 | z12 | f4 c4 G4 | g8 e4 | d4 c8 | d4 c4 e4 | f4 e8 | d4 c8 | d12 | z12 | %34
 A4 A4 B4 | d8 c4 | A4 G8 | g4 z4 f4 | f8 d4 | c4 e4 c4 | B4 A8 | c4 B4 d4 | A4 d8 | c4 B8 | c12 |] %45

